!!!!SEGMENT: Mou2006-Tua_est_potentia.krn
!!!id: Mou2006
!!!AGN: Motet
!!!SCT: Lowinsky (1968)
!!!voices: 5
!!!COM: Jean Mouton
!!!OTL: Tua est potentia
**kern	**kern	**kern	**kern	**kern
*part5	*part4	*part3	*part2	*part1
*staff5	*staff4	*staff3	*staff2	*staff1
*I"Bassus	*I"Tenor II	*I"Tenor I	*I"Altus	*I"Superius
*I'B	*I'T. II	*I'T. I	*I'A	*I'S
*clefF4	*clefGv2	*clefGv2	*clefGv2	*clefG2
*k[]	*k[]	*k[]	*k[]	*k[]
*C:	*C:	*C:	*C:	*C:
*M2/1	*M2/1	*M2/1	*M2/1	*M2/1
*met(C|)	*met(C|)	*met(C|)	*met(C|)	*met(C|)
!!section: Prima pars: Tua est potentia
!!!OMD: Prima pars: Tua est potentia
=1	=1	=1	=1	=1
!	!	!LO:TX:a:t=Canon&colon; tenor I/tenor II at the lower fourth	!	!
0r	0r	0r	0G	0r
=2	=2	=2	=2	=2
0r	0r	0r	0d	0r
=3	=3	=3	=3	=3
0r	0r	0r	2.e	0g
.	.	.	4d	.
.	.	.	4e	.
.	.	.	4f	.
.	.	.	[2g	.
=4	=4	=4	=4	=4
0r	0r	0r	2g]	0dd
.	.	.	4f	.
.	.	.	4e	.
.	.	.	2.d	.
.	.	.	4e	.
=5	=5	=5	=5	=5
0r	0r	0r	2f	0dd
.	.	.	1g	.
.	.	.	2f	.
=6	=6	=6	=6	=6
0C	0r	0r	1g	0ee
.	.	.	2.G	.
.	.	.	4A	.
=7	=7	=7	=7	=7
0G	0r	0r	4B	1r
.	.	.	4c	.
.	.	.	2d	.
.	.	.	2G	1dd
.	.	.	[2g	.
=8	=8	=8	=8	=8
0A	0r	0r	2g]	1.cc
.	.	.	4f#i	.
.	.	.	4e	.
.	.	.	1f#i	.
.	.	.	.	4b
.	.	.	.	4a
=9	=9	=9	=9	=9
1r	0r	0r	2g	2.b
.	.	.	2G	.
.	.	.	.	4cc
1G	.	.	2.B	[1dd
.	.	.	4c	.
=10	=10	=10	=10	=10
2F	0r	0r	2d	2dd]
2G	.	.	1e	4cc
.	.	.	.	4b
1A	.	.	.	1cc
.	.	.	4d	.
.	.	.	4c	.
=11	=11	=11	=11	=11
1G	0r	0r	1B	0dd
1G	.	.	1d	.
=12	=12	=12	=12	=12
2F	0r	0c	1f	1a
2G	.	.	.	.
1A	.	.	[1e	1cc
=13	=13	=13	=13	=13
[0G	0G	0g	1e]	2.b
.	.	.	.	4cc
.	.	.	[1d	1dd
=14	=14	=14	=14	=14
0G]	0d	0g	2d]	1r
.	.	.	2c	.
.	.	.	1B	1d
=15	=15	=15	=15	=15
1D	0d	0a	0A	1f
1F	.	.	.	2f
.	.	.	.	2f
=16	=16	=16	=16	=16
1E	0e	1r	1B	1g
1C	.	1g	1c	1e
=17	=17	=17	=17	=17
1.D	1r	1.f	0A	1d
.	1d	.	.	1r
2D	.	4e	.	.
.	.	4d	.	.
=18	=18	=18	=18	=18
1AA	1.c	2e	1r	0r
.	.	2f	.	.
[1E	.	[1g	[1G	.
.	4B	.	.	.
.	4A	.	.	.
=19	=19	=19	=19	=19
1E]	2B	2g]	1G]	0r
.	2c	4f	.	.
.	.	4e	.	.
1D	(1d	1f	[1A	.
=20	=20	=20	=20	=20
0E	2d)	0g	2A]	0r
.	4c#i	.	4G	.
.	4B	.	4F	.
.	1c#i	.	2G	.
.	.	.	2g	.
=21	=21	=21	=21	=21
1D	0d	0r	2.f	1d
.	.	.	4e	.
1r	.	.	1d	1f
=22	=22	=22	=22	=22
1A	0r	0r	1c	2.e
.	.	.	.	4d
[1c	.	.	1r	4e
.	.	.	.	4f
.	.	.	.	[2g
=23	=23	=23	=23	=23
1c]	0r	0r	0r	2g]
.	.	.	.	4f
.	.	.	.	4e
[1B	.	.	.	1d
=24	=24	=24	=24	=24
2B]	0r	0r	1d	1r
2c	.	.	.	.
1d	.	.	1f	1a
=25	=25	=25	=25	=25
2.c	0r	0r	1.e	0cc
4B	.	.	.	.
1A	.	.	.	.
.	.	.	2f	.
=26	=26	=26	=26	=26
0G	0r	0r	1g	2.b
.	.	.	.	4cc
.	.	.	1d	[1dd
=27	=27	=27	=27	=27
1r	0r	1d	1.f	2dd]
.	.	.	.	4cc
.	.	.	.	4b
1D	.	[1f	.	[1a
.	.	.	4e	.
.	.	.	4d	.
=28	=28	=28	=28	=28
2.F	1A	1f]	1c	1a]
4G	.	.	.	.
1A	[1c	[1e	2r	[1a
.	.	.	2A	.
=29	=29	=29	=29	=29
1A	1c]	2e]	1c	1a]
.	.	2f	.	.
[1G	[1B	2.g	1d	2.b
.	.	4f	.	4cc
=30	=30	=30	=30	=30
2G]	2B]	2d	1G	0dd
4F	2c	2e	.	.
4E	.	.	.	.
[1D	2.d	[1f	2B	.
.	.	.	2A	.
.	4c	.	.	.
=31	=31	=31	=31	=31
1D]	2A	1f]	1d	1r
.	2B	.	.	.
1C	[1c	1e	2G	1g
.	.	.	[2g	.
=32	=32	=32	=32	=32
2F	1c]	1c	2g]	1a
2A	.	.	2f	.
1G	1B	1d	1g	1b
=33	=33	=33	=33	=33
1C	1G	0c	1e	1.cc
1r	1A	.	1c	.
.	.	.	.	4b
.	.	.	.	4a
=34	=34	=34	=34	=34
0r	0G	0r	1d	1.b
.	.	.	1e	.
.	.	.	.	2cc
=35	=35	=35	=35	=35
0r	0r	0r	2d	2.dd
.	.	.	1g	.
.	.	.	.	4cc
.	.	.	.	2b
.	.	.	[2f	[2a
=36	=36	=36	=36	=36
1D	0r	0r	4f]	4a]
.	.	.	4e	4g
.	.	.	4d	4f
.	.	.	4c	4e
1D	.	.	2B	2d
.	.	.	2A	[2a
=37	=37	=37	=37	=37
1C	0r	0r	2c	4a]
.	.	.	.	4g
.	.	.	2B	1g
1D	.	.	1A	.
.	.	.	.	2f#i
=38	=38	=38	=38	=38
1d	0r	0r	1G	1g
2d	.	.	1r	1a
2c	.	.	.	.
=39	=39	=39	=39	=39
2.d	0r	0r	0r	1a
4c	.	.	.	.
4B	.	.	.	1g
4A	.	.	.	.
2B	.	.	.	.
=40	=40	=40	=40	=40
2A	0r	0r	2r	0a
2.D	.	.	2d	.
.	.	.	1d	.
4E	.	.	.	.
4F	.	.	.	.
4G	.	.	.	.
=41	=41	=41	=41	=41
4A	0r	0r	1c	1cc
4G	.	.	.	.
2A	.	.	.	.
2G	.	.	[1d	2b
2F	.	.	.	2a
=42	=42	=42	=42	=42
1G	0r	0r	1d]	1b
2D	.	.	1f	1b
2d	.	.	.	.
=43	=43	=43	=43	=43
2c	0r	1g	2e	1cc
2B	.	.	2d	.
1c	.	1g	1e	1r
=44	=44	=44	=44	=44
1d	1d	1f	1d	0r
1G	1d	[1g	2r	.
.	.	.	2g	.
=45	=45	=45	=45	=45
1r	1c	1g]	2.e	0r
.	.	.	4f	.
1G	[1d	1b	1g	.
=46	=46	=46	=46	=46
2F	1d]	2a	1.d	1r
2G	.	2g	.	.
1D	1f	1a	.	2r
.	.	.	2c	2a
=47	=47	=47	=47	=47
1G	2e	0g	2.B	1b
.	2d	.	.	.
.	.	.	4A	.
1C	1e	.	2.G	1cc
.	.	.	4A	.
=48	=48	=48	=48	=48
2.G	0d	0r	4B	1b
.	.	.	4c	.
.	.	.	2d	.
4A	.	.	.	.
4B	.	.	2.G	1r
4c	.	.	.	.
[2d	.	.	.	.
.	.	.	4A	.
=49	=49	=49	=49	=49
4d]	0r	0r	4B	1dd
4c	.	.	4c	.
4B	.	.	2d	.
4A	.	.	.	.
1B	.	.	2G	1dd
.	.	.	2g	.
=50	=50	=50	=50	=50
1A	0r	0r	2.a	1cc
.	.	.	4g	.
1r	.	.	4f	[1dd
.	.	.	4e	.
.	.	.	[2g	.
=51	=51	=51	=51	=51
0r	0r	0r	2g]	2dd]
.	.	.	4f	2ee
.	.	.	4e	.
.	.	.	2d	1ff
.	.	.	[2a	.
=52	=52	=52	=52	=52
0r	0r	0r	4a]	2ee
.	.	.	4g	.
.	.	.	2f	1dd
.	.	.	1e	.
.	.	.	.	2cc#i
=53	=53	=53	=53	=53
1G	0r	0r	2r	2.dd
.	.	.	2d	.
.	.	.	.	8ccL
.	.	.	.	8bJ
2F	.	.	1d	2a
2G	.	.	.	[2b
=54	=54	=54	=54	=54
2.E	0r	0g	1e	2b]
.	.	.	.	2cc
4F	.	.	.	.
1G	.	.	1d	2.b
.	.	.	.	8aL
.	.	.	.	8gJ
=55	=55	=55	=55	=55
1r	0d	1f	1r	1a
1G	.	1g	2r	1b
.	.	.	2B	.
=56	=56	=56	=56	=56
1A	1c	2e	1c	1a
.	.	2f	.	.
[1G	1d	1g	[1B	2r
.	.	.	.	[2d
=57	=57	=57	=57	=57
2G]	2B	0r	2B]	2d]
4F	2c	.	4A	2e
4E	.	.	4G	.
2D	1d	.	2A	2f
[2G	.	.	[2B	[2d
=58	=58	=58	=58	=58
4G]	0r	0g	4B]	2d]
4F	.	.	4A	.
4E	.	.	4G	4c#i
4D	.	.	4F	4B
1E	.	.	1G	1c#i
=59	=59	=59	=59	=59
1D	0d	1f	1A	1d
1G	.	1g	1B	1r
=60	=60	=60	=60	=60
1A	1c	2e	1c	0r
.	.	2f	.	.
(1G	1d	1g	[1B	.
=61	=61	=61	=61	=61
2G)	2B	1d	2B]	0dd
4F	2c	.	4A	.
4E	.	.	4G	.
1D	1d	[1f	1A	.
=62	=62	=62	=62	=62
2.F	1A	1f]	2r	2.cc
.	.	.	2.c	.
4G	.	.	.	4b
4A	[1c	1e	.	2a
4B	.	.	4d	.
2c	.	.	2e	2g
=63	=63	=63	=63	=63
2F	1c]	1c	1f	1a
2A	.	.	.	.
1G	1B	1d	2.g	2b
.	.	.	.	[2g
.	.	.	4f	.
=64	=64	=64	=64	=64
2C	1G	1c	2e	2g]
2E	.	.	2c	4f#i
.	.	.	.	4e
1D	1A	1r	1d	1f#i
=65	=65	=65	=65	=65
1r	1G	1d	2B	1g
.	.	.	1d	.
1D	1r	[1f	.	1dd
.	.	.	4c	.
.	.	.	4B	.
=66	=66	=66	=66	=66
2.F	1A	1f]	2A	2.cc
.	.	.	2.c	.
4G	.	.	.	4b
4A	[1c	1e	.	2a
4B	.	.	4d	.
2c	.	.	2e	2g
=67	=67	=67	=67	=67
2F	1c]	1c	2f	1a
2A	.	.	2e	.
1G	1B	1d	1g	2b
.	.	.	.	[2g
=68	=68	=68	=68	=68
2C	1G	1c	2e	2g]
2E	.	.	2c	4f#i
.	.	.	.	4e
1D	1A	2r	[1d	1f#i
.	.	2A	.	.
=69	=69	=69	=69	=69
[0Gl	[0Gl	2.B	1d]	[0gl
.	.	4c	.	.
.	.	1d	2.B	.
.	.	.	4c	.
=70	=70	=70	=70	=70
00G]	00G]	00Bl	00dl	00g]
==	==	==	==	==
*-	*-	*-	*-	*-
!!!system-decoration: [*]
!!!RDF**kern: i = editorial accidental
!!!RDF**kern: l = terminal long
!!!ENC: Benjamin Ory
!!!END: 2021/4/20
!!!EED: Benjamin Ory
!!!EEV: 2021/05/02
!!!YEC: Copyright 2021 Benjamin Ory, All Rights Reserved
!!!ONB: Translated from MusicXML on 2021/05/02
